assets/Cloud/Flat/cloud_flat.svg

<svg width="32" height="32" viewBox="0 0 32 32" fill="none" xmlns="http://www.w3.org/2000/svg">
<path d="M27.938 8.83821C24.0423 5.04133 17.8344 5.05797 13.9753 8.86406C13.4392 8.67001 12.8612 8.56433 12.26 8.56433C10.458 8.56433 8.87859 9.50994 7.98809 10.929C4.08596 11.1722 1 14.4106 1 18.3743C1 20.1277 1.61099 21.7416 2.62059 23.0183C3.99219 24.8117 6.14877 25.9643 8.58 25.9643H21.27C24.4212 25.9643 27.2042 24.4125 28.9045 22.0385C31.9165 18.083 31.5813 12.4038 27.9394 8.83964L27.938 8.83821Z" fill="#B4ACBC"/>
<path d="M14.55 9.70434C18.01 6.15434 23.69 6.09434 27.24 9.55434C30.52 12.7643 30.82 17.8843 28.1 21.4443C26.58 23.5743 24.09 24.9643 21.27 24.9643H8.58C6.47 24.9643 4.6 23.9643 3.41 22.4043C2.53 21.2943 2 19.8943 2 18.3743C2 14.8043 4.89 11.9143 8.46 11.9143C8.50303 11.9143 8.54595 11.9148 8.58877 11.9156C9.22825 10.5277 10.6316 9.56433 12.26 9.56433C12.9685 9.56433 13.6345 9.74673 14.2134 10.0671C14.3215 9.94392 14.4337 9.82294 14.55 9.70434Z" fill="#F3EEF8"/>
</svg>

<svg xmlns="http://www.w3.org/2000/svg" width="32" height="32" fill="none"><path fill="#B4ACBC" d="M27.938 8.838c-3.896-3.797-10.104-3.78-13.963.026a5.036 5.036 0 0 0-5.987 2.065A7.457 7.457 0 0 0 1 18.374a7.47 7.47 0 0 0 1.62 4.644 7.48 7.48 0 0 0 5.96 2.946h12.69a9.371 9.371 0 0 0 7.634-3.925c3.012-3.956 2.677-9.635-.965-13.2h-.001Z"/><path fill="#F3EEF8" d="M14.55 9.704c3.46-3.55 9.14-3.61 12.69-.15 3.28 3.21 3.58 8.33.86 11.89a8.372 8.372 0 0 1-6.83 3.52H8.58c-2.11 0-3.98-1-5.17-2.56A6.47 6.47 0 0 1 2 18.374a6.457 6.457 0 0 1 6.589-6.458 4.04 4.04 0 0 1 5.624-1.849c.109-.123.22-.244.337-.363Z"/></svg>
